X: 2782
T: Prince William Henry's Return - Quick step
R: jig
Z: 2012 John Chambers <jc:trillian.mit.edu>
B: "Sources of Irish traditional music, c. 1600-1855" (Aloys Fleishcmann and Paul McGettrick, editors) 1998 p.525 #2782
N: Called "Henry's Return" in the Boston Collection, 1910 (Oliver Ditson, editor)
N: Called "A Drumeddie" in the Robert Petrie Collection, 1790.
M: 6/8
L: 1/8
K: D
A |\
d/e/fd B2d | AFA A2d | AFA Ade | f3 gfe |\
d/e/fd B2d | AFA A2d | B2g fge | d3 d2 :|
|: A |\
dfg a2f | b2g a2f | dfg a2f | g2e bge |\
dfg a2f | b2g a2f | fdA Ade | f3 f2e/d/ |
B2B B2d | A2A A2d | AFA Ade | f3 f2e/d/ |\
B2B B2d | A2A A2d | B2g fge | d3 d2 :|
